!!!OTL: Der Fisch(?) Concelebrant (4-5), S. 7
!!!id: P0566
**kern
*clefG2
*k[b-]
*F:
{4c
=1
4f
4f
4g
=2
4a
4f
8cc
8cc
=3
4b
4cc
4dd
=4
2cc}
=5
{4cc
=6
4g
4a
4b
=7
2cc
8a
8b-
=8
4cc
4cc
4dd
=9
4.cc
8b-}
=10
{4a
=11
4b-
4a
4g
=12
4a
4g}
=13
{4f
=14
2g
8.cc
16b-
=15
2a
4g
=16
2f}
==
*-
!!!minrhy: 16
!!!meters: 3/4 ]  ZZ[4
!!!cut: Der Fisch(?) Concelebrant (4-5), S. 7
!!!reg: Lothringen
!!!trd: PINCK, Louis: Verklingende Weisen Bd 4, Kassel 1939
!!!rhy1: X__  X__X__X__  X__X__X_X_  X__X__X__  X___   (x2)
!!!rhy2: X__  X__X__X__  X___X_X_  X__X__X__  X__.X_
!!!key: P0566  16  F 3/4 ]  ZZ[4
!!!mod: HEPTATONIK DUR ?]  AMBITUS[9
!!!kad: 5421
!!!akz: 134#5_2555_43_231_
!!!fot: 'a__b__c__d__
!!!for: 'a__b__aw_c__
!!!fok: '/__Sd_\__^__
!! PHRAS[AUFTAKTIG]
!!!fkt: geistliches, religiöses Lied
!! LOTH VKL
!! PR[22] 2K[8] 2G[19] 3K[6] 3G[0] 4A[0] 4Ü[0] 5A[0] 6K[0] 6G[0]
!! 7K[0] 7G[0] 8A[0] MEHR[0] SI[33] ABS[36] SR[28] SP[6]
!! ST[0] 2k[17] 2g[28] 3k[0] 3g[0] 4d[0] 4ü[0] 5d[0] 6k[0] 6g[0]
!! 7k[0] 7g[0] 8d[0] mehr[0] si[44] dm[-11] sr[44] sp[0]
!! 1F[3] 2F[45] 3F[50] 4F[0] LF[0] 2P[3] 3P[0] 4P[0] TRI[0] DF[4] AB[40]
!! TF[0] U3K[0] U3[0] U4[0] U4Ü[0] U5[0] U6K[0] U6[0] U7K[5] U7[0]
!! N1[22] N2K[0] N2[35] N3K[27] N3[0] N4[5] N4Ü[0] N5[5] N6K[0] N6[0]
!!!n7k: 0] N7[0] O1[0] O2K[0] O2[0] O3K[0] O3[0] HÖ[0
